svg/aws-ec2-g4ad.svg

<?xml version="1.0" encoding="UTF-8"?>
<svg xmlns="http://www.w3.org/2000/svg" xmlns:xlink="http://www.w3.org/1999/xlink" width="32" height="32" viewBox="0 0 32 32">
<path fill-rule="evenodd" fill="rgb(83.137255%, 35.686275%, 2.745098%)" fill-opacity="1" d="M 6 26 L 26 26 L 26 6 L 6 6 Z M 30.667969 8.667969 L 30.667969 7.332031 L 27.332031 7.332031 L 27.332031 5.332031 C 27.332031 4.964844 27.035156 4.667969 26.667969 4.667969 L 24.667969 4.667969 L 24.667969 1.332031 L 23.332031 1.332031 L 23.332031 4.667969 L 20.667969 4.667969 L 20.667969 1.332031 L 19.332031 1.332031 L 19.332031 4.667969 L 16.667969 4.667969 L 16.667969 1.332031 L 15.332031 1.332031 L 15.332031 4.667969 L 12.667969 4.667969 L 12.667969 1.332031 L 11.332031 1.332031 L 11.332031 4.667969 L 8.667969 4.667969 L 8.667969 1.332031 L 7.332031 1.332031 L 7.332031 4.667969 L 5.332031 4.667969 C 4.964844 4.667969 4.667969 4.964844 4.667969 5.332031 L 4.667969 7.332031 L 1.332031 7.332031 L 1.332031 8.667969 L 4.667969 8.667969 L 4.667969 11.332031 L 1.332031 11.332031 L 1.332031 12.667969 L 4.667969 12.667969 L 4.667969 15.332031 L 1.332031 15.332031 L 1.332031 16.667969 L 4.667969 16.667969 L 4.667969 19.332031 L 1.332031 19.332031 L 1.332031 20.667969 L 4.667969 20.667969 L 4.667969 23.332031 L 1.332031 23.332031 L 1.332031 24.667969 L 4.667969 24.667969 L 4.667969 26.667969 C 4.667969 27.035156 4.964844 27.332031 5.332031 27.332031 L 7.332031 27.332031 L 7.332031 30.667969 L 8.667969 30.667969 L 8.667969 27.332031 L 11.332031 27.332031 L 11.332031 30.667969 L 12.667969 30.667969 L 12.667969 27.332031 L 15.332031 27.332031 L 15.332031 30.667969 L 16.667969 30.667969 L 16.667969 27.332031 L 19.332031 27.332031 L 19.332031 30.667969 L 20.667969 30.667969 L 20.667969 27.332031 L 23.332031 27.332031 L 23.332031 30.667969 L 24.667969 30.667969 L 24.667969 27.332031 L 26.667969 27.332031 C 27.035156 27.332031 27.332031 27.035156 27.332031 26.667969 L 27.332031 24.667969 L 30.667969 24.667969 L 30.667969 23.332031 L 27.332031 23.332031 L 27.332031 20.667969 L 30.667969 20.667969 L 30.667969 19.332031 L 27.332031 19.332031 L 27.332031 16.667969 L 30.667969 16.667969 L 30.667969 15.332031 L 27.332031 15.332031 L 27.332031 12.667969 L 30.667969 12.667969 L 30.667969 11.332031 L 27.332031 11.332031 L 27.332031 8.667969 Z M 22.316406 17.882812 C 22.605469 17.882812 22.886719 17.792969 23.160156 17.605469 L 23.160156 15.589844 C 22.917969 15.414062 22.628906 15.324219 22.332031 15.324219 C 22.003906 15.324219 21.765625 15.429688 21.609375 15.636719 C 21.457031 15.84375 21.378906 16.164062 21.378906 16.59375 C 21.378906 17.453125 21.691406 17.882812 22.316406 17.882812 M 23.285156 18.484375 L 23.199219 18.125 C 22.886719 18.414062 22.472656 18.570312 22.046875 18.566406 C 21.578125 18.566406 21.203125 18.390625 20.921875 18.042969 C 20.640625 17.691406 20.5 17.222656 20.5 16.628906 C 20.5 16.238281 20.5625 15.894531 20.6875 15.597656 C 20.816406 15.296875 21 15.066406 21.238281 14.898438 C 21.480469 14.726562 21.761719 14.644531 22.089844 14.644531 C 22.480469 14.644531 22.839844 14.769531 23.160156 15.023438 L 23.160156 13.058594 L 24.027344 13.058594 L 24.027344 18.484375 Z M 18.109375 17.980469 C 18.246094 17.980469 18.390625 17.949219 18.542969 17.886719 C 18.699219 17.828125 18.84375 17.742188 18.988281 17.628906 L 18.988281 16.925781 C 18.765625 16.875 18.542969 16.847656 18.316406 16.84375 C 17.820312 16.84375 17.574219 17.042969 17.574219 17.4375 C 17.574219 17.609375 17.621094 17.742188 17.714844 17.835938 C 17.820312 17.9375 17.964844 17.988281 18.109375 17.980469 M 19.097656 18.484375 L 19.03125 18.125 C 18.863281 18.273438 18.671875 18.386719 18.464844 18.472656 C 18.269531 18.554688 18.058594 18.59375 17.84375 18.597656 C 17.503906 18.597656 17.222656 18.492188 17.011719 18.289062 C 16.796875 18.078125 16.683594 17.789062 16.691406 17.488281 C 16.691406 17.125 16.824219 16.839844 17.085938 16.625 C 17.347656 16.40625 17.699219 16.300781 18.136719 16.300781 C 18.398438 16.300781 18.679688 16.335938 18.988281 16.410156 L 18.988281 15.976562 C 18.988281 15.730469 18.933594 15.554688 18.828125 15.457031 C 18.71875 15.359375 18.53125 15.3125 18.261719 15.3125 C 17.878906 15.3125 17.441406 15.390625 16.949219 15.550781 L 16.949219 14.945312 C 17.132812 14.851562 17.359375 14.777344 17.625 14.722656 C 17.890625 14.671875 18.160156 14.644531 18.425781 14.644531 C 18.914062 14.644531 19.273438 14.742188 19.507812 14.9375 C 19.738281 15.132812 19.851562 15.4375 19.851562 15.851562 L 19.851562 18.484375 Z M 14.851562 16.742188 L 14.851562 14.503906 L 13.320312 16.742188 Z M 14.851562 18.484375 L 14.851562 17.429688 L 12.445312 17.429688 L 12.445312 16.777344 L 14.816406 13.402344 L 15.726562 13.402344 L 15.726562 16.742188 L 16.40625 16.742188 L 16.40625 17.429688 L 15.726562 17.429688 L 15.726562 18.484375 Z M 10.355469 17.820312 C 10.589844 17.820312 10.820312 17.796875 11.046875 17.753906 L 11.046875 16.410156 L 9.996094 16.410156 L 9.996094 15.707031 L 11.941406 15.707031 L 11.941406 18.199219 C 11.71875 18.316406 11.457031 18.410156 11.15625 18.476562 C 10.855469 18.542969 10.546875 18.574219 10.230469 18.574219 C 9.417969 18.574219 8.796875 18.351562 8.371094 17.90625 C 7.945312 17.460938 7.730469 16.820312 7.730469 15.976562 C 7.730469 15.121094 7.953125 14.464844 8.390625 14.007812 C 8.828125 13.550781 9.460938 13.324219 10.285156 13.324219 C 10.839844 13.324219 11.332031 13.421875 11.765625 13.625 L 11.765625 14.335938 C 11.25 14.164062 10.777344 14.078125 10.34375 14.078125 C 9.765625 14.078125 9.339844 14.226562 9.058594 14.519531 C 8.78125 14.8125 8.640625 15.269531 8.640625 15.890625 L 8.640625 16.042969 C 8.640625 16.65625 8.777344 17.101562 9.054688 17.390625 C 9.332031 17.675781 9.765625 17.820312 10.355469 17.820312 M 10.355469 17.820312 "/>
</svg>

<svg role="img" viewBox="0 0 32 32" xmlns="http://www.w3.org/2000/svg"><path d="M6 26h20V6H6ZM30.668 8.668V7.332h-3.336v-2a.664.664 0 0 0-.664-.664h-2V1.332h-1.336v3.336h-2.664V1.332h-1.336v3.336h-2.664V1.332h-1.336v3.336h-2.664V1.332h-1.336v3.336H8.668V1.332H7.332v3.336h-2a.664.664 0 0 0-.664.664v2H1.332v1.336h3.336v2.664H1.332v1.336h3.336v2.664H1.332v1.336h3.336v2.664H1.332v1.336h3.336v2.664H1.332v1.336h3.336v2c0 .367.297.664.664.664h2v3.336h1.336v-3.336h2.664v3.336h1.336v-3.336h2.664v3.336h1.336v-3.336h2.664v3.336h1.336v-3.336h2.664v3.336h1.336v-3.336h2a.664.664 0 0 0 .664-.664v-2h3.336v-1.336h-3.336v-2.664h3.336v-1.336h-3.336v-2.664h3.336v-1.336h-3.336v-2.664h3.336v-1.336h-3.336V8.668Zm-8.352 9.215q.434.002.844-.278V15.59a1.4 1.4 0 0 0-.828-.266c-.328 0-.566.106-.723.313q-.229.311-.23.957 0 1.29.937 1.289m.97.601-.087-.359a1.68 1.68 0 0 1-1.152.441q-.704 0-1.125-.523c-.281-.352-.422-.82-.422-1.414q0-.585.188-1.031.193-.45.55-.7.361-.255.852-.253c.39 0 .75.125 1.07.378V13.06h.867v5.425Zm-5.177-.504q.206 0 .434-.093c.156-.059.3-.145.445-.258v-.703a3.2 3.2 0 0 0-.672-.082q-.743.001-.742.593 0 .258.14.399a.53.53 0 0 0 .395.144m.989.504-.067-.359c-.168.148-.36.262-.566.348a1.7 1.7 0 0 1-.621.125c-.34 0-.621-.106-.832-.309a1.07 1.07 0 0 1-.32-.8q0-.544.394-.864c.262-.219.613-.324 1.05-.324q.392-.001.852.11v-.434q0-.372-.16-.52-.164-.146-.566-.145-.574 0-1.313.239v-.606q.277-.14.676-.222.4-.077.8-.078c.49 0 .848.097 1.083.293q.345.293.344.914v2.632Zm-4.246-1.742v-2.238l-1.532 2.238Zm0 1.742V17.43h-2.407v-.653l2.371-3.375h.91v3.34h.68v.688h-.68v1.054Zm-4.497-.664q.352 0 .692-.066V16.41h-1.05v-.703h1.944v2.492q-.333.176-.785.278-.451.098-.926.097-1.219 0-1.859-.668-.64-.666-.64-1.93.002-1.282.66-1.968.657-.685 1.894-.684.832-.002 1.48.301v.71q-.772-.256-1.421-.257-.865.001-1.285.442-.418.44-.418 1.37v.153c0 .613.136 1.059.414 1.348q.415.429 1.3.43m0 0" fill="rgb(83.137256%, 35.686275%, 2.745098%)" fill-rule="evenodd"/></svg>
